X: 1807
T: The High Cauled Cap
M:C|
L:1/8
B:O'Neill's 1807
N:"collected by F. O'Neill"
Z:"Transcribed by Bob Safranek, rjs@gsp.org"
K:Dm
   C2 | F2 FG A2 c2 | cBAG AGFG | A2 G2 G2 FG | A2 G2 G2 FD |
        F2 FG A2 c2 | BAGF ABGA | F2 D2 D2 CD | F2 D2 D2   :|
|: c2 | d2 f2 c2 f2 | BAGF AGFG | A2 G2 G2 FG | A2 G2 G2 c2 |
        d2 f2 c2 f2 | BAGF ABGA | F2 D2 D2 CD | F2 D2 D2   :|


